X:3158
T:Joys of Wedlock
O:england
R:Jig
M:6/8
L:1/8
K:G
E|DGG GBd|gfe d2c|Bdg dBG|FAA A2B|
DGG GBd|gfe d2c|(4BcdB cAF|AGF G2:|
|:A|Bdg dBG|Bdg d2c|Bdg dBG|FAA A2c|
Bdg dBG|Bdg d2c|(4BcdB cAF|AGF G2:|
